docs/images/copy-tile.svg

<?xml version="1.0" encoding="UTF-8" standalone="no"?>
<svg
   width="64"
   height="64"
   viewBox="0 0 64 64"
   version="1.1"
   id="svg1"
   sodipodi:docname="copy-tile.svg"
   inkscape:version="1.3.2 (091e20e, 2023-11-25)"
   xmlns:inkscape="http://www.inkscape.org/namespaces/inkscape"
   xmlns:sodipodi="http://sodipodi.sourceforge.net/DTD/sodipodi-0.dtd"
   xmlns="http://www.w3.org/2000/svg"
   xmlns:svg="http://www.w3.org/2000/svg">
  <defs
     id="defs1" />
  <sodipodi:namedview
     id="namedview1"
     pagecolor="#ffffff"
     bordercolor="#000000"
     borderopacity="0.25"
     inkscape:showpageshadow="2"
     inkscape:pageopacity="0.0"
     inkscape:pagecheckerboard="0"
     inkscape:deskcolor="#d1d1d1"
     inkscape:zoom="8.953125"
     inkscape:cx="32"
     inkscape:cy="31.944154"
     inkscape:window-width="1392"
     inkscape:window-height="997"
     inkscape:window-x="1962"
     inkscape:window-y="25"
     inkscape:window-maximized="0"
     inkscape:current-layer="svg1" />
  <rect
     fill="#e2725b"
     width="64"
     height="64"
     x="0"
     y="0"
     rx="15"
     ry="15"
     id="rect1" />
  <path
     d="M 25.4,10 C 22.969946,10 21,11.969946 21,14.4 v 4.4 h 4.4 V 14.4 H 49.6 V 38.6 H 45.2 V 43 h 4.4 C 52.03012,43 54,41.03012 54,38.6 V 14.4 C 54,11.969946 52.03012,10 49.6,10 Z m -11,11 C 11.969946,21 10,22.969946 10,25.4 v 24.2 c 0,2.43012 1.969946,4.4 4.4,4.4 H 38.6 C 41.03012,54 43,52.03012 43,49.6 V 25.4 C 43,22.969946 41.03012,21 38.6,21 Z m 0,4.4 H 38.6 V 49.6 H 14.4 Z"
     fill="#ffffff"
     id="path1"
     style="stroke-width:0.6875" />
</svg>

<svg xmlns="http://www.w3.org/2000/svg" width="64" height="64">
    <rect width="64" height="64" fill="#e2725b" rx="15" ry="15"/>
    <path fill="#fff" d="M25.4 10a4.4 4.4 0 0 0-4.4 4.4v4.4h4.4v-4.4h24.2v24.2h-4.4V43h4.4a4.4 4.4 0 0 0 4.4-4.4V14.4a4.4 4.4 0 0 0-4.4-4.4Zm-11 11a4.4 4.4 0 0 0-4.4 4.4v24.2a4.4 4.4 0 0 0 4.4 4.4h24.2a4.4 4.4 0 0 0 4.4-4.4V25.4a4.4 4.4 0 0 0-4.4-4.4Zm0 4.4h24.2v24.2H14.4Z" style="stroke-width:.6875"/>
</svg>
